X: 39453
T: Tarantula, The
R: jig
M: 6/8
K: Bminor
|:f/e/|dcd Edc|B^AB cde|d>cd e>de|f2f f2f/e/|
dcd edc|B^AB cde|dcB FB^A|B3 B2:|
|:a|afa bgb|afa bgb|afa agf|e2e e2f/e/|
dcd ede|B^AB cde|dcB FB^A B2:|

